X: 205
T: Jenny's Bawbee
M: C
L: 1/8
Q:1/4=211
K:C % 0 Sharps/Flats
% (c) SSF July 2006
% warning this may not be transcribed correctly
d2|
"C"g>ag>f e<cc>e|"Dm"f>Ad>c "G"B<GG>e|"C"g>ag>f e<ce<g|"F"A>c"G"B>d "C"c3d|\
"C"g>ag>f e<cc>e|"Dm"f>Ad>c "G"B<GG>e|"C"g>ag>f e<ce<g|"F"A>c"G"B>d "C"c2:||\
d2|
"C"e>c"F"f>d "C"e<cc>e|"Dm"f>ed>c "G"B<G G2|"C"e>c"F"f>d "C"e>ce<g|"F"A>c"G"B>d "C"c2 c>d|\
"C"e>c"G7"f>d "C"e<cc>e|"F"f>ed>c "G"B<G G2|"C"e>c"G7"f>d "C"e>ce<g|"F"A>c"G"B>d "C"c2 :||

%  <A name="D1X206"></A>
